app/assets/images/logo.svg

<?xml version="1.0" encoding="UTF-8" standalone="no"?>
<!-- Created with Inkscape (http://www.inkscape.org/) -->

<svg
   xmlns:dc="http://purl.org/dc/elements/1.1/"
   xmlns:cc="http://creativecommons.org/ns#"
   xmlns:rdf="http://www.w3.org/1999/02/22-rdf-syntax-ns#"
   xmlns:svg="http://www.w3.org/2000/svg"
   xmlns="http://www.w3.org/2000/svg"
   xmlns:sodipodi="http://sodipodi.sourceforge.net/DTD/sodipodi-0.dtd"
   xmlns:inkscape="http://www.inkscape.org/namespaces/inkscape"
   width="80.000023"
   height="80.000023"
   viewBox="0 0 80.000019 80.000019"
   id="svg2"
   version="1.1"
   inkscape:version="0.91 r13725"
   sodipodi:docname="logo-fusion.svg">
  <defs
     id="defs4" />
  <sodipodi:namedview
     id="base"
     pagecolor="#ffffff"
     bordercolor="#666666"
     borderopacity="1.0"
     inkscape:pageopacity="0.0"
     inkscape:pageshadow="2"
     inkscape:zoom="1.4"
     inkscape:cx="15.139003"
     inkscape:cy="43.795022"
     inkscape:document-units="px"
     inkscape:current-layer="layer1"
     showgrid="true"
     units="px"
     inkscape:snap-bbox="true"
     inkscape:bbox-nodes="true"
     inkscape:snap-bbox-midpoints="true"
     fit-margin-top="0"
     fit-margin-left="0"
     fit-margin-right="0"
     fit-margin-bottom="0">
    <inkscape:grid
       type="xygrid"
       id="grid4136"
       empspacing="20"
       spacingx="0.99999995"
       spacingy="0.99999995"
       originx="140.00002"
       originy="-59.999985" />
  </sodipodi:namedview>
  <metadata
     id="metadata7">
    <rdf:RDF>
      <cc:Work
         rdf:about="">
        <dc:format>image/svg+xml</dc:format>
        <dc:type
           rdf:resource="http://purl.org/dc/dcmitype/StillImage" />
        <dc:title></dc:title>
      </cc:Work>
    </rdf:RDF>
  </metadata>
  <g
     inkscape:label="Calque 1"
     inkscape:groupmode="layer"
     id="layer1"
     transform="translate(140.00001,-912.36224)">
    <path
       style="font-style:normal;font-variant:normal;font-weight:300;font-stretch:normal;font-size:medium;line-height:125%;font-family:'Open Sans';-inkscape-font-specification:'Open Sans Light';text-align:center;letter-spacing:0px;word-spacing:0px;text-anchor:middle;fill:#000000;fill-opacity:1;stroke:none;stroke-width:1px;stroke-linecap:butt;stroke-linejoin:miter;stroke-opacity:1"
       d="M 40 0 C 17.937034 0 0 17.937034 0 40 C 0 62.062966 17.937034 80 40 80 C 62.062969 80 80.000005 62.062966 80 40 C 79.999999 17.937034 62.062965 0 40 0 z M 40 4.8007812 C 59.468851 4.8007812 75.199218 20.531146 75.199219 40 C 75.199219 42.815582 74.860007 45.548875 74.238281 48.171875 L 68.173828 25.539062 C 66.654995 19.870702 64.329485 16.061681 61.195312 14.113281 C 58.061143 12.164888 54.055883 11.844343 49.181641 13.150391 C 46.059935 13.986851 43.451151 15.419692 41.353516 17.449219 C 39.283262 19.471419 37.86465 21.951184 37.095703 24.886719 L 36.929688 24.929688 C 33.514593 20.180319 28.289482 18.749064 21.251953 20.634766 C 18.513613 21.368506 16.173109 22.654847 14.230469 24.496094 C 12.280489 26.309967 10.985583 28.490822 10.347656 31.039062 L 10.101562 31.105469 L 7.8164062 25.724609 C 13.283545 13.389448 25.617218 4.8007813 40 4.8007812 z M 54.09375 16.248047 C 55.986371 16.24307 57.631467 16.722458 59.027344 17.6875 C 61.260741 19.23158 62.960314 22.181202 64.126953 26.535156 L 71.791016 55.140625 C 66.139131 67.010996 54.044232 75.201172 40 75.201172 C 32.604474 75.201172 25.751105 72.925694 20.091797 69.042969 L 13.658203 45.033203 C 12.051323 39.036241 11.951821 34.396549 13.361328 31.113281 C 14.763495 27.802621 17.805721 25.520312 22.488281 24.265625 C 29.388896 22.416611 33.847461 25.256674 35.865234 32.787109 L 44.042969 63.306641 L 48.191406 62.195312 L 41.181641 36.029297 C 39.736179 30.634769 39.77147 26.385557 41.287109 23.279297 C 42.802741 20.173037 45.846892 18.00659 50.419922 16.78125 C 51.734323 16.429057 52.958177 16.251033 54.09375 16.248047 z M 5.7597656 31.828125 L 14.435547 64.203125 C 8.4654513 57.897914 4.8007813 49.387411 4.8007812 40 C 4.8007812 37.184817 5.1382104 34.450716 5.7597656 31.828125 z "
       transform="translate(-140.00001,912.36224)"
       id="path4176" />
  </g>
</svg>

<svg xmlns:rdf="http://www.w3.org/1999/02/22-rdf-syntax-ns#" xmlns="http://www.w3.org/2000/svg" version="1.1" xmlns:cc="http://creativecommons.org/ns#" xmlns:dc="http://purl.org/dc/elements/1.1/" viewBox="0 0 80 80">
	<defs>
		<mask id="mask">
			<path fill="white" d="m40 0c-22.063 0-40 17.937-40 40s17.937 40 40 40 40-17.937 40-40-17.937-40-40-40zm0 4.8008c19.469 0 35.199 15.73 35.199 35.199 0 2.8156-0.33921 5.5489-0.96094 8.1719l-6.064-22.633c-1.5188-5.6684-3.8443-9.4774-6.9785-11.426-3.1342-1.9484-7.1394-2.2689-12.014-0.96289-3.1217 0.83646-5.7305 2.2693-7.8281 4.2988-2.0703 2.0222-3.4889 4.502-4.2578 7.4375l-0.16602 0.04297c-3.4151-4.7494-8.6402-6.1806-15.678-4.2949-2.7383 0.73374-5.0788 2.0201-7.0215 3.8613-1.95 1.8139-3.2449 3.9947-3.8828 6.543l-0.24609 0.06641-2.2852-5.3809c5.4683-12.335 17.801-20.923 32.184-20.923zm14.094 11.447c1.8926-0.005 3.5377 0.47441 4.9336 1.4395 2.2334 1.5441 3.933 4.4937 5.0996 8.8477l7.6641 28.605c-5.652 11.871-17.747 20.061-31.791 20.061-7.3955 0-14.249-2.2755-19.908-6.1582l-6.434-24.01c-1.6069-5.997-1.7064-10.637-0.29688-13.92 1.4022-3.3107 4.4444-5.593 9.127-6.8477 6.9006-1.849 11.359 0.99105 13.377 8.5215l8.1777 30.52 4.1484-1.1113-7.0098-26.166c-1.4455-5.3945-1.4102-9.6437 0.10547-12.75 1.5156-3.1063 4.5598-5.2727 9.1328-6.498 1.3144-0.35219 2.5383-0.53022 3.6738-0.5332zm-48.334 15.58 8.6758 32.375c-5.9705-6.305-9.6352-14.816-9.6352-24.203 0-2.8152 0.33743-5.5493 0.95898-8.1719z"/>
		</mask>
	</defs>
	<g transform="translate(140 -912.36)">
		<path d="m40 0c-22.063 0-40 17.937-40 40s17.937 40 40 40 40-17.937 40-40-17.937-40-40-40zm0 4.8008c19.469 0 35.199 15.73 35.199 35.199 0 2.816-0.339 5.549-0.961 8.172l-6.064-22.633c-1.519-5.668-3.845-9.477-6.979-11.426-3.134-1.948-7.139-2.269-12.013-0.963-3.122 0.837-5.731 2.27-7.828 4.299-2.071 2.022-3.489 4.502-4.258 7.438l-0.166 0.043c-3.415-4.75-8.641-6.181-15.678-4.295-2.738 0.734-5.079 2.02-7.022 3.861-1.95 1.814-3.244 3.995-3.882 6.543l-0.246 0.066-2.2856-5.38c5.4676-12.336 17.801-20.924 32.184-20.924zm14.094 11.447c1.892-0.005 3.537 0.474 4.933 1.44 2.234 1.544 3.933 4.493 5.1 8.847l7.664 28.606c-5.652 11.87-17.747 20.06-31.791 20.06-7.396 0-14.249-2.275-19.908-6.158l-6.434-24.01c-1.607-5.997-1.706-10.636-0.297-13.92 1.402-3.31 4.445-5.593 9.127-6.847 6.901-1.849 11.359 0.991 13.377 8.521l8.178 30.52 4.148-1.112-7.009-26.166c-1.446-5.394-1.411-9.643 0.105-12.75 1.516-3.106 4.56-5.272 9.133-6.498 1.314-0.352 2.538-0.53 3.674-0.533zm-48.334 15.58l8.6762 32.375c-5.9705-6.305-9.6352-14.816-9.6352-24.203 0-2.815 0.3374-5.549 0.959-8.172z" mask="url(#mask4220)" transform="translate(-140 912.36)" fill="#fff"/>
	</g>
</svg>
